X: 111
T: No_199_Lightningbug_Dance_Song.krn
N: Derived from No_199_Lightningbug_Dance_Song.krn
%%abc-version 2.0
%%abcx-abcm2ps-target-version 5.9.1 (29 Sep 2008)
%%abc-creator hum2abc beta
%%abcx-conversion-date 2019/03/15 08:38:45
%%humdrum-veritas 1152361592
%%humdrum-veritas-data 1414184788
%%linebreak <none>
%%barnumbers 0
L: 1/8
M: 2/4
K: F clef=bass
[K:clef=bass][M:2/4]z3F,/F,/ | 
!accent!C,C, !accent!C,F,/F,/ | 
!accent!C,C, !accent!C,G,/G,/ | 
!accent!F,F, !accent!F,F,/F,/ | 
!accent!C,C, !accent!C,F,/F,/ | 
!accent!C,C, !accent!C,F,/F,/ | 
!accent!C,C, !accent!C,G,/G,/ | 
!accent!F,F, !accent!F,F,/F,/ | 
!accent!C,C, !accent!C,F,/F,/ | 
!accent!C,C, !accent!C,G,/G,/ | 
!accent!F,F, !accent!F,F,/F,/ | 
!accent!C,C, !accent!C,F,/F,/ | 
!accent!C,C, !accent!C,G,/G,/ | 
!accent!F,F, !accent!F,F,/F,/ | 
!accent!C,C, !accent!C,F,/F,/ | 
!accent!C,C, !accent!C,F,/F,/ ||  
[M:5/8]C,C,(C,A,,)A,, | 
C,2z3 |]  



